X:6579
T: the Bridal Jig
O:england
B: Cole p.58
R: jig
M: 6/8
L: 1/8
K: A
"E7"E
| "A"A2A cAc | "E7"efg "A"aga | "D"fdB "A"ecA | "E7"GBA GFE
| "A"A2A cAc | "E7"efg "A"aga | "D"fdB "A"ecA | "E7"dBG "A"A2 :|
K: F#m
|: c
| "Fm"c2f fec | "E"efg "Fm"a2b | c'ba "E"bag | "Fm"f2f fec
| "Fm"c2f fec | "E"efg "Fm"a2b | c'ba "E"bag | "Fm"f2f f2 :|


